app/dist/common/images/costamare.svg

<svg height="18" viewBox="0 0 18 18" width="18" xmlns="http://www.w3.org/2000/svg"><path d="m0 0h18v18h-18z" fill="#f0f3fa"/><path d="m8 7v-3h2.8l3.2 3zm3 7v-3h3zm-4-4v-6l-3 3.08v2.92zm3 4v-3h-6l3.22 3z" fill="#f58421"/></svg>

<!-- by TradingView --><svg xmlns="http://www.w3.org/2000/svg" width="18" height="18" viewBox="0 0 18 18"><path fill="#F0F3FA" d="M0 0h18v18H0z"/><path d="M8 7V4h2.8L14 7H8ZM11 14v-3h3l-3 3ZM7 10V4L4 7.08V10h3ZM10 14v-3H4l3.22 3H10Z" fill="#F58421"/></svg>
